src/assets/logos/trendyol.svg

<svg xmlns="http://www.w3.org/2000/svg" xmlns:xlink="http://www.w3.org/1999/xlink" width="144" zoomAndPan="magnify" viewBox="0 0 108 48" height="64" preserveAspectRatio="xMidYMid meet" version="1.0"><defs><clipPath id="782bb59656"><path d="M 10.730469 13 L 97.421875 13 L 97.421875 34 L 10.730469 34 Z M 10.730469 13 " clip-rule="nonzero"/></clipPath></defs><g clip-path="url(#782bb59656)"><path fill="#231f20" d="M 41.730469 24.574219 L 31.910156 24.574219 C 32.363281 26.421875 33.855469 27.816406 35.800781 27.816406 C 36.894531 27.816406 37.972656 27.347656 38.691406 26.53125 L 41.066406 26.585938 C 40.019531 28.578125 38.027344 29.855469 35.714844 29.855469 C 32.339844 29.855469 29.683594 26.914062 29.683594 23.59375 C 29.683594 20.160156 32.292969 17.347656 35.761719 17.347656 C 39.121094 17.347656 41.800781 20.121094 41.800781 23.46875 C 41.792969 23.828125 41.769531 24.21875 41.730469 24.574219 Z M 35.730469 19.378906 C 33.808594 19.378906 32.027344 20.898438 31.902344 22.855469 L 39.558594 22.855469 C 39.441406 20.914062 37.667969 19.378906 35.730469 19.378906 Z M 51.5625 29.558594 L 51.5625 23.097656 C 51.5625 21.085938 50.960938 19.386719 48.601562 19.386719 C 46.421875 19.386719 45.476562 21.078125 45.476562 23.082031 L 45.476562 29.566406 L 43.257812 29.566406 L 43.257812 17.667969 L 45.335938 17.667969 L 45.335938 18.929688 L 45.375 18.929688 C 46.234375 17.792969 47.476562 17.339844 48.84375 17.339844 C 50.53125 17.339844 52.117188 18.003906 53.039062 19.464844 C 53.609375 20.363281 53.789062 21.453125 53.789062 22.511719 L 53.789062 29.558594 Z M 65.613281 29.558594 L 65.613281 27.863281 L 65.574219 27.863281 C 64.589844 29.242188 63.027344 29.855469 61.378906 29.855469 C 57.824219 29.855469 55.21875 27.199219 55.21875 23.65625 C 55.21875 20.089844 57.785156 17.339844 61.378906 17.339844 C 62.871094 17.339844 64.457031 17.910156 65.402344 19.117188 L 65.441406 19.117188 L 65.441406 13.671875 L 67.660156 13.671875 L 67.660156 29.558594 Z M 61.503906 19.378906 C 59.152344 19.378906 57.441406 21.304688 57.441406 23.632812 C 57.441406 25.859375 59.222656 27.824219 61.488281 27.824219 C 63.800781 27.824219 65.613281 25.9375 65.613281 23.632812 C 65.613281 21.25 63.925781 19.378906 61.503906 19.378906 Z M 74.101562 33.53125 L 71.796875 33.53125 L 73.523438 29.320312 L 68.800781 17.667969 L 71.195312 17.667969 L 74.6875 26.898438 L 78.257812 17.667969 L 80.65625 17.667969 Z M 86.980469 29.855469 C 83.492188 29.855469 80.585938 27.042969 80.585938 23.523438 C 80.585938 20.019531 83.5625 17.339844 86.980469 17.339844 C 90.449219 17.339844 93.378906 20.042969 93.378906 23.5625 C 93.378906 26.953125 90.574219 29.855469 86.980469 29.855469 Z M 86.980469 19.378906 C 84.667969 19.378906 82.804688 21.265625 82.804688 23.585938 C 82.804688 25.90625 84.660156 27.816406 86.980469 27.816406 C 89.316406 27.816406 91.160156 25.890625 91.160156 23.570312 C 91.152344 21.25 89.285156 19.378906 86.980469 19.378906 Z M 95.191406 29.558594 L 95.191406 13.671875 L 97.421875 13.671875 L 97.421875 29.558594 Z M 12.933594 27.214844 C 13.027344 27.589844 13.152344 27.902344 13.292969 28.136719 C 13.433594 28.375 13.621094 28.578125 13.832031 28.773438 C 14.535156 29.390625 15.425781 29.707031 16.476562 29.707031 C 17.523438 29.707031 18.5 29.445312 19.390625 28.953125 L 19.390625 26.8125 C 18.46875 27.355469 17.585938 27.636719 16.757812 27.636719 C 15.632812 27.636719 15.050781 26.945312 15.050781 25.582031 L 15.050781 19.761719 L 18.78125 19.761719 L 18.78125 17.699219 L 15.074219 17.699219 L 15.074219 13.882812 L 12.871094 13.882812 L 12.871094 17.691406 L 10.730469 17.691406 L 10.730469 19.753906 L 12.777344 19.753906 L 12.777344 25.035156 C 12.777344 26.109375 12.832031 26.835938 12.933594 27.214844 Z M 26.390625 19.660156 C 27.078125 19.660156 27.835938 20.035156 28.640625 20.796875 L 29.847656 18.78125 C 28.867188 17.878906 27.679688 17.464844 26.984375 17.464844 L 26.828125 17.464844 C 26.03125 17.464844 24.695312 17.464844 23.617188 19.226562 L 23.578125 19.296875 L 23.585938 17.699219 L 21.28125 17.699219 L 21.28125 29.484375 L 23.585938 29.484375 L 23.585938 23.328125 C 23.585938 22.339844 23.859375 21.476562 24.414062 20.75 C 24.96875 20.027344 25.632812 19.660156 26.390625 19.660156 Z M 26.390625 19.660156 " fill-opacity="1" fill-rule="nonzero"/></g></svg>

<svg xmlns="http://www.w3.org/2000/svg" width="144" height="64" viewBox="0 0 108 48"><defs><clipPath id="a"><path d="M10.73 13h86.692v21H10.73Zm0 0"/></clipPath></defs><g clip-path="url(#a)"><path fill="#231f20" d="M41.73 24.574h-9.82c.453 1.848 1.945 3.242 3.89 3.242 1.095 0 2.173-.468 2.891-1.285l2.375.055c-1.046 1.992-3.039 3.27-5.351 3.27-3.375 0-6.031-2.942-6.031-6.262 0-3.434 2.609-6.246 6.078-6.246 3.36 0 6.039 2.773 6.039 6.12-.008.36-.031.75-.07 1.106m-6-5.195c-1.921 0-3.703 1.52-3.828 3.476h7.657c-.118-1.94-1.891-3.476-3.829-3.476m15.833 10.18v-6.461c0-2.012-.602-3.711-2.961-3.711-2.18 0-3.125 1.691-3.125 3.695v6.484h-2.22V17.668h2.079v1.262h.039c.86-1.137 2.102-1.59 3.469-1.59 1.687 0 3.273.664 4.195 2.125.57.898.75 1.988.75 3.047v7.047Zm14.05 0v-1.696h-.039c-.984 1.38-2.547 1.992-4.195 1.992-3.555 0-6.16-2.656-6.16-6.199 0-3.566 2.566-6.316 6.16-6.316 1.492 0 3.078.57 4.023 1.777h.04v-5.445h2.218v15.887Zm-4.11-10.18c-2.35 0-4.062 1.926-4.062 4.254 0 2.226 1.782 4.191 4.047 4.191 2.313 0 4.125-1.887 4.125-4.191 0-2.383-1.687-4.254-4.11-4.254M74.103 33.53h-2.305l1.726-4.21-4.722-11.653h2.394l3.493 9.23 3.57-9.23h2.398Zm12.878-3.676c-3.488 0-6.394-2.812-6.394-6.332 0-3.503 2.977-6.183 6.394-6.183 3.47 0 6.399 2.703 6.399 6.223 0 3.39-2.805 6.292-6.399 6.292m0-10.476c-2.312 0-4.175 1.887-4.175 4.207s1.855 4.23 4.175 4.23c2.336 0 4.18-1.925 4.18-4.246-.008-2.32-1.875-4.191-4.18-4.191m8.211 10.18V13.672h2.23v15.887Zm-82.257-2.344c.093.375.218.687.359.922.14.238.328.441.539.636.703.618 1.594.934 2.645.934a5.95 5.95 0 0 0 2.914-.754v-2.14c-.922.542-1.805.824-2.633.824-1.125 0-1.707-.692-1.707-2.055v-5.82h3.73v-2.063h-3.707v-3.816h-2.203v3.808h-2.14v2.063h2.046v5.281q.002 1.61.157 2.18M26.39 19.66c.687 0 1.445.375 2.25 1.137l1.207-2.016c-.98-.902-2.168-1.316-2.864-1.316h-.156c-.797 0-2.133 0-3.21 1.762l-.04.07.008-1.598H21.28v11.785h2.305v-6.156c0-.988.273-1.851.828-2.578.555-.723 1.219-1.09 1.977-1.09m0 0"/></g></svg>
